src/img/projects/symfony.svg

<?xml version="1.0" encoding="UTF-8"?>
<svg width="90px" height="90px" viewBox="0 0 90 90" version="1.1" xmlns="http://www.w3.org/2000/svg" xmlns:xlink="http://www.w3.org/1999/xlink">
    <!-- Generator: Sketch 41.2 (35397) - http://www.bohemiancoding.com/sketch -->
    <title>community/card/logo/symfony</title>
    <desc>Created with Sketch.</desc>
    <defs></defs>
    <g id="Symbols" stroke="none" stroke-width="1" fill="none" fill-rule="evenodd">
        <g id="community/card/logo/symfony" fill="#FFFFFF">
            <path d="M64.0464629,18.0779824 C59.9900903,18.21709 56.4492977,20.4632697 53.8143368,23.5655753 C50.8971313,26.9716674 48.9550448,31.0068126 47.5560497,35.1278773 C45.0545689,33.0709249 43.1247096,30.4043537 39.1101132,29.2464869 C36.007462,28.349447 32.747895,28.7186961 29.7512127,30.9607844 C28.3318389,32.0255717 27.3526442,33.6324698 26.8880107,35.1473114 C25.6846507,39.077103 28.1535256,42.5762746 29.2763899,43.832335 L31.7309997,46.4702664 C32.2363906,46.9878288 33.4550345,48.3379914 32.8599776,50.2742474 C32.2180498,52.3802966 29.6890578,53.7406877 27.096892,52.9387729 C25.9383651,52.5807753 24.2764852,51.7164666 24.6483958,50.4972288 C24.8022547,50.0001235 25.1578623,49.6237145 25.3504407,49.1971858 C25.5226404,48.8279368 25.6082308,48.5476758 25.6612153,48.381974 C26.1350192,46.8333783 25.4869777,44.8142715 23.8322304,44.2997777 C22.2865089,43.825175 20.7071626,44.2026069 20.0937648,46.1971653 C19.3978335,48.4678934 20.4809594,52.5848667 26.2735941,54.3769007 C33.0607074,56.4706757 38.8013765,52.7607969 39.6155041,47.9216913 C40.1300653,44.8940538 38.7646949,42.6407142 36.2703467,39.7460473 L34.2345184,37.4865705 C33.0026283,36.2509671 32.5787521,34.1438951 33.8544563,32.5257456 C34.9304497,31.1581945 36.4619061,30.5761926 38.9745951,31.2615024 C42.6396975,32.2598045 44.2730472,34.8128393 46.9976743,36.8718374 C45.8737911,40.5786476 45.1381214,44.2967091 44.4727581,47.6332474 L44.064166,50.1187741 C42.1159659,60.3769417 40.6283235,66.012848 36.7624914,69.2450555 C35.9840265,69.802509 34.8693137,70.6351093 33.1911309,70.6934118 C32.3107727,70.7210288 32.0275093,70.1124327 32.016301,69.8485373 C31.9959224,69.2307356 32.5155782,68.9453603 32.8609966,68.6661221 C33.3786146,68.3827926 34.1601362,67.9133042 34.1061328,66.4127825 C34.0500915,64.637114 32.5838467,63.0967012 30.4675227,63.166255 C28.8800249,63.2163747 26.4620967,64.7168964 26.5527817,67.46325 C26.6475425,70.2975687 29.2774088,72.4240749 33.2461533,72.28599 C35.367572,72.2143905 40.103573,71.3511047 44.7713055,65.7775923 C50.2042568,59.3929596 51.723486,52.0734414 52.8646911,46.7188191 L54.1424332,39.6427394 C54.8485539,39.7296816 55.607659,39.789007 56.4319759,39.8074183 C63.1997295,39.9516402 66.5825874,36.4350802 66.634553,33.8748854 C66.6671588,32.3262898 65.6217335,30.8001968 64.1554888,30.8380423 C63.1090445,30.8666821 61.7936018,31.5673347 61.4767136,33.0218281 C61.1679769,34.4487045 63.6297193,35.7374962 61.7069925,36.9894652 C60.3406032,37.8772994 57.8890502,38.502261 54.4389427,37.9949272 L55.0655866,34.514167 C56.3453666,27.9106442 57.9257318,19.7912569 63.9190963,19.5918011 C64.3562186,19.5713441 65.9528867,19.6122581 65.9905873,20.6719312 C66.0007766,21.0258375 65.9121294,21.1199397 65.5014994,21.9290145 C65.0786421,22.5611361 64.9207075,23.1001783 64.9390483,23.71798 C64.9981464,25.4026148 66.2748696,26.5113847 68.1232142,26.4459223 C70.5951459,26.3630714 71.3063612,23.9491442 71.264585,22.7063809 C71.1626917,19.7871655 68.0987598,17.9429661 64.0464629,18.0779824 L64.0464629,18.0779824 Z" id="Shape"></path>
        </g>
    </g>
</svg>

<svg width="90" height="90" viewBox="0 0 90 90" xmlns="http://www.w3.org/2000/svg"><title>community/card/logo/symfony</title><path d="M64.046 18.078c-4.056.14-7.597 2.385-10.232 5.488-2.917 3.406-4.859 7.44-6.258 11.562-2.501-2.057-4.431-4.724-8.446-5.882-3.103-.897-6.362-.527-9.359 1.715-1.42 1.065-2.398 2.671-2.863 4.186-1.203 3.93 1.266 7.43 2.388 8.685l2.455 2.638c.505.518 1.724 1.868 1.129 3.804-.642 2.106-3.17 3.467-5.763 2.665-1.159-.358-2.82-1.223-2.449-2.442.154-.497.51-.873.702-1.3.173-.37.258-.65.311-.815.474-1.549-.174-3.568-1.829-4.082-1.545-.475-3.125-.097-3.738 1.897-.696 2.27.387 6.388 6.18 8.18C33.06 56.47 38.8 52.76 39.616 47.922c.514-3.028-.851-5.281-3.346-8.176l-2.035-2.26c-1.232-1.235-1.656-3.342-.38-4.96 1.075-1.368 2.607-1.95 5.12-1.264 3.665.998 5.298 3.55 8.023 5.61-1.124 3.707-1.86 7.425-2.525 10.761l-.409 2.486c-1.948 10.258-3.436 15.894-7.302 19.126-.778.558-1.893 1.39-3.57 1.448-.881.028-1.164-.58-1.176-.844-.02-.618.5-.904.845-1.183.518-.283 1.3-.753 1.245-2.253-.056-1.776-1.522-3.316-3.638-3.247-1.588.05-4.006 1.55-3.915 4.297.095 2.835 2.724 4.961 6.693 4.823 2.122-.072 6.858-.935 11.525-6.508 5.433-6.385 6.952-13.705 8.094-19.06l1.277-7.075c.707.087 1.466.146 2.29.164 6.768.145 10.15-3.372 10.203-5.932.032-1.549-1.013-3.075-2.48-3.037-1.046.029-2.361.73-2.678 2.184-.309 1.427 2.153 2.715.23 3.967-1.366.888-3.818 1.513-7.268 1.006l.627-3.48c1.28-6.604 2.86-14.724 8.853-14.923.437-.02 2.034.02 2.072 1.08.01.354-.079.448-.49 1.257-.422.632-.58 1.171-.562 1.789.06 1.685 1.336 2.793 3.184 2.728 2.472-.083 3.183-2.497 3.142-3.74-.102-2.919-3.166-4.763-7.219-4.628z" fill="#FFF" fill-rule="evenodd"/></svg>
